Simply-Green-Circles/scalable/apps/pragha.svg

<svg xmlns="http://www.w3.org/2000/svg" width="48" height="48" viewBox="0 0 12.7 12.7"><path d="M6.34.07a6.29 6.29 0 0 0-6.29 6.3 6.29 6.29 0 0 0 6.3 6.28 6.29 6.29 0 0 0 6.28-6.29A6.29 6.29 0 0 0 6.34.07zM6.32 1l.01.01a5.4 5.4 0 0 1 5.4 5.4 5.4 5.4 0 0 1-5.4 5.41 5.4 5.4 0 0 1-5.41-5.4A5.4 5.4 0 0 1 6.32 1zm1.7 1.65a.8.8 0 0 0-.23.07c-.14.06-.47.11-.73.11-.91.02-1.64.33-2.24.91-.8.8-1.05 1.8-.69 2.72.09.22.14.43.12.49-.02.05-.18.2-.35.32-.36.27-.6.7-.67 1.17-.04.28-.01.42.15.75.34.72 1.12 1.03 1.94.78.48-.15.96-.68 1.35-1.47.33-.69.34-.7.7-.83.6-.2.98-.44 1.35-.82.67-.69.91-1.57.68-2.42-.11-.38-.2-.51-.69-1a4.55 4.55 0 0 1-.68-.78zm-1.42.57c.3 0 .54.08.6.26.02.06-.07.33-.2.6-.33.7-.44 1.09-.64 2.32C6.1 7.94 5.83 8.6 5.28 9c-.35.25-.78.27-1 .05a.61.61 0 0 1-.17-.69c.08-.2.15-.23.68-.3.36-.05.7-.3.7-.62 0-.2-.16-.31-.45-.6a1.9 1.9 0 0 1-.64-1.42c0-.85.44-1.57 1.18-1.95.34-.17.71-.26 1.02-.25zm.88.57c.1-.02.22.09.4.3.68.84.6 2.11-.17 2.85-.33.3-.4.33-.63.16-.14-.1-.16-.19-.16-.54 0-.55.18-1.88.32-2.39.07-.24.14-.37.24-.38z" fill="#2ca02c"/></svg>

<?xml version="1.0" encoding="UTF-8" standalone="no"?>
<svg
   xmlns:dc="http://purl.org/dc/elements/1.1/"
   xmlns:cc="http://creativecommons.org/ns#"
   xmlns:rdf="http://www.w3.org/1999/02/22-rdf-syntax-ns#"
   xmlns:svg="http://www.w3.org/2000/svg"
   xmlns="http://www.w3.org/2000/svg"
   xmlns:sodipodi="http://sodipodi.sourceforge.net/DTD/sodipodi-0.dtd"
   xmlns:inkscape="http://www.inkscape.org/namespaces/inkscape"
   width="48"
   height="48"
   viewBox="0 0 12.7 12.7"
   version="1.1"
   id="svg4"
   sodipodi:docname="pragha.svg"
   inkscape:version="0.92.4 (5da689c313, 2019-01-14)">
  <metadata
     id="metadata10">
    <rdf:RDF>
      <cc:Work
         rdf:about="">
        <dc:format>image/svg+xml</dc:format>
        <dc:type
           rdf:resource="http://purl.org/dc/dcmitype/StillImage" />
        <dc:title></dc:title>
      </cc:Work>
    </rdf:RDF>
  </metadata>
  <defs
     id="defs8" />
  <sodipodi:namedview
     pagecolor="#ffffff"
     bordercolor="#666666"
     borderopacity="1"
     objecttolerance="10"
     gridtolerance="10"
     guidetolerance="10"
     inkscape:pageopacity="0"
     inkscape:pageshadow="2"
     inkscape:window-width="1087"
     inkscape:window-height="480"
     id="namedview6"
     showgrid="false"
     inkscape:zoom="4.9166667"
     inkscape:cx="2.1355932"
     inkscape:cy="24"
     inkscape:window-x="0"
     inkscape:window-y="25"
     inkscape:window-maximized="0"
     inkscape:current-layer="svg4" />
  <path
     d="M 6.34,0.07 A 6.29,6.29 0 0 0 0.05,6.37 6.29,6.29 0 0 0 6.35,12.65 6.29,6.29 0 0 0 12.63,6.36 6.29,6.29 0 0 0 6.34,0.07 Z M 6.32,1 6.33,1.01 a 5.4,5.4 0 0 1 5.4,5.4 5.4,5.4 0 0 1 -5.4,5.41 A 5.4,5.4 0 0 1 0.92,6.42 5.4,5.4 0 0 1 6.32,1 Z m 1.7,1.65 A 0.8,0.8 0 0 0 7.79,2.72 C 7.65,2.78 7.32,2.83 7.06,2.83 6.15,2.85 5.42,3.16 4.82,3.74 4.02,4.54 3.77,5.54 4.13,6.46 4.22,6.68 4.27,6.89 4.25,6.95 4.23,7 4.07,7.15 3.9,7.27 3.54,7.54 3.3,7.97 3.23,8.44 3.19,8.72 3.22,8.86 3.38,9.19 3.72,9.91 4.5,10.22 5.32,9.97 5.8,9.82 6.28,9.29 6.67,8.5 7,7.81 7.01,7.8 7.37,7.67 7.97,7.47 8.35,7.23 8.72,6.85 9.39,6.16 9.63,5.28 9.4,4.43 9.29,4.05 9.2,3.92 8.71,3.43 A 4.55,4.55 0 0 1 8.03,2.65 Z M 6.6,3.22 C 6.9,3.22 7.14,3.3 7.2,3.48 7.22,3.54 7.13,3.81 7,4.08 6.67,4.78 6.56,5.17 6.36,6.4 6.1,7.94 5.83,8.6 5.28,9 4.93,9.25 4.5,9.27 4.28,9.05 A 0.61,0.61 0 0 1 4.11,8.36 C 4.19,8.16 4.26,8.13 4.79,8.06 5.15,8.01 5.49,7.76 5.49,7.44 5.49,7.24 5.33,7.13 5.04,6.84 A 1.9,1.9 0 0 1 4.4,5.42 C 4.4,4.57 4.84,3.85 5.58,3.47 5.92,3.3 6.29,3.21 6.6,3.22 Z M 7.48,3.79 C 7.58,3.77 7.7,3.88 7.88,4.09 8.56,4.93 8.48,6.2 7.71,6.94 7.38,7.24 7.31,7.27 7.08,7.1 6.94,7 6.92,6.91 6.92,6.56 6.92,6.01 7.1,4.68 7.24,4.17 7.31,3.93 7.38,3.8 7.48,3.79 Z"
     id="path2"
     inkscape:connector-curvature="0"
     style="fill:#2ca02c" />
</svg>
